svg/man_negative.svg

<svg width="48" height="48" viewBox="0 0 48 48" fill="none" xmlns="http://www.w3.org/2000/svg">
<path fill-rule="evenodd" clip-rule="evenodd" d="M0 0V47.9994H47.9994V0H0ZM24.0017 4.02725C25.1662 4.02728 26.283 4.48986 27.1064 5.31325C27.9299 6.13664 28.3925 7.2534 28.3926 8.41789C28.3926 9.58244 27.93 10.6993 27.1065 11.5227C26.2831 12.3462 25.1662 12.8088 24.0017 12.8088C23.4249 12.8091 22.8537 12.6957 22.3208 12.4751C21.7878 12.2546 21.3035 11.9312 20.8956 11.5234C20.4876 11.1157 20.164 10.6315 19.9432 10.0987C19.7224 9.56582 19.6088 8.99469 19.6088 8.41789C19.6088 7.84113 19.7225 7.27002 19.9433 6.7372C20.1641 6.20437 20.4877 5.72027 20.8957 5.31254C21.3036 4.90482 21.7879 4.58145 22.3208 4.36091C22.8538 4.14038 23.4249 4.027 24.0017 4.02725ZM23.5637 13.8908H24.4277H28.4256V13.8998C29.1476 13.9098 29.8356 14.3098 30.1756 15.0058L35.0286 24.9487C35.5096 25.9337 35.1046 27.1127 34.1206 27.5937C33.1366 28.0736 31.9566 27.6697 31.4766 26.6857L28.4256 20.4337V27.4447V28.9316V30.3706V41.9975C28.4256 43.0925 27.5447 43.9744 26.4487 43.9744C25.3537 43.9744 24.4707 43.0925 24.4707 41.9975V30.3706H24.4277H23.5637H23.5177V41.9975C23.5177 43.0925 22.6357 43.9744 21.5407 43.9744C20.4457 43.9744 19.5658 43.0925 19.5658 41.9975V30.3706V28.9316V27.4447V20.4487L16.5208 26.6857C16.0408 27.6697 14.8648 28.0736 13.8808 27.5937C12.8968 27.1127 12.4878 25.9337 12.9688 24.9487L17.8238 15.0058C18.1618 14.3128 18.8478 13.9188 19.5658 13.9038V13.8928L23.5637 13.8908Z" fill="#333333"/>
</svg>

<?xml version="1.0" encoding="UTF-8" standalone="no"?>
<!-- Created with Inkscape (http://www.inkscape.org/) -->
<svg id="svg8" xmlns:rdf="http://www.w3.org/1999/02/22-rdf-syntax-ns#" xmlns="http://www.w3.org/2000/svg" xmlns:osb="http://www.openswatchbook.org/uri/2009/osb" height="48" width="48" version="1.1" xmlns:cc="http://creativecommons.org/ns#" viewBox="0 0 12.7 12.7" xmlns:dc="http://purl.org/dc/elements/1.1/">
 <title id="title4753">UIO-icon</title>
 <metadata id="metadata5">
  <rdf:RDF>
   <cc:Work rdf:about="">
    <dc:format>image/svg+xml</dc:format>
    <dc:type rdf:resource="http://purl.org/dc/dcmitype/StillImage"/>
    <dc:title>UIO-icon</dc:title>
    <dc:creator>
     <cc:Agent>
      <dc:title>Joaquín Urbano</dc:title>
     </cc:Agent>
    </dc:creator>
    <dc:rights>
     <cc:Agent>
      <dc:title>GPL</dc:title>
     </cc:Agent>
    </dc:rights>
   </cc:Work>
  </rdf:RDF>
 </metadata>
 <g id="layer1" transform="translate(0,-284.3)">
  <path id="rect4806" d="m0 0v48h48v-48h-48zm24.002 4.0273a4.3911 4.3911 0 0 1 4.391 4.3907 4.3911 4.3911 0 0 1 -4.391 4.391 4.3911 4.3911 0 0 1 -4.393 -4.391 4.3911 4.3911 0 0 1 4.393 -4.3907zm-0.438 9.8637h0.864 3.998v0.009c0.722 0.01 1.41 0.41 1.75 1.106l4.853 9.943c0.481 0.985 0.076 2.164-0.908 2.645-0.984 0.48-2.164 0.076-2.644-0.908l-3.051-6.252v7.011 1.487 1.439 11.627c0 1.095-0.881 1.977-1.977 1.977-1.095 0-1.978-0.882-1.978-1.977v-11.627h-0.043-0.864-0.046v11.627c0 1.095-0.882 1.977-1.977 1.977s-1.975-0.882-1.975-1.977v-11.627-1.439-1.487-6.996l-3.045 6.237c-0.48 0.984-1.656 1.388-2.64 0.908-0.984-0.481-1.393-1.66-0.912-2.645l4.855-9.943c0.338-0.693 1.024-1.087 1.742-1.102v-0.011l3.998-0.002z" fill-rule="evenodd" transform="matrix(.26458 0 0 .26458 0 284.3)" fill="#333"/>
 </g>
</svg>
